packages/kaspersky-hexa-ui-icons/src/iconsSVGs/24/Switch1.svg

<svg width="24" height="24" viewBox="0 0 24 24" fill="none" xmlns="http://www.w3.org/2000/svg">
<path d="M18.7071 2.29289C18.3166 1.90237 17.6834 1.90237 17.2929 2.29289C16.9024 2.68342 16.9024 3.31658 17.2929 3.70711L18.5858 5H13.4415C12.1502 5 11.0038 5.82629 10.5955 7.05132L9.50716 10.3162C9.37105 10.7246 8.98891 11 8.55848 11H3C2.44772 11 2 11.4477 2 12C2 12.5523 2.44772 13 3 13H8.55848C9.84977 13 10.9962 12.1737 11.4045 10.9487L12.4928 7.68377C12.6289 7.27543 13.0111 7 13.4415 7H18.5858L17.2929 8.29289C16.9024 8.68342 16.9024 9.31658 17.2929 9.70711C17.6834 10.0976 18.3166 10.0976 18.7071 9.70711L21.7071 6.70711C22.0976 6.31658 22.0976 5.68342 21.7071 5.29289L18.7071 2.29289Z" fill="black"/>
<path d="M18.7071 21.7071C18.3166 22.0976 17.6834 22.0976 17.2929 21.7071C16.9024 21.3166 16.9024 20.6834 17.2929 20.2929L18.5858 19H13.2361C12.0998 19 11.061 18.358 10.5528 17.3416L9.60557 15.4472C9.35858 14.9532 9.55881 14.3526 10.0528 14.1056C10.5468 13.8586 11.1474 14.0588 11.3944 14.5528L12.3416 16.4472C12.511 16.786 12.8573 17 13.2361 17H18.5858L17.2929 15.7071C16.9024 15.3166 16.9024 14.6834 17.2929 14.2929C17.6834 13.9024 18.3166 13.9024 18.7071 14.2929L21.7071 17.2929C22.0976 17.6834 22.0976 18.3166 21.7071 18.7071L18.7071 21.7071Z" fill="black"/>
</svg>

<svg xmlns="http://www.w3.org/2000/svg" width="24" height="24" fill="none" viewBox="0 0 24 24"><path fill="#000" d="M18.707 2.293c-.39-.39-1.024-.39-1.414 0s-.39 1.024 0 1.414L18.586 5h-5.144a3 3 0 0 0-2.846 2.051l-1.088 3.265a1 1 0 0 1-.949.684H3c-.552 0-1 .448-1 1s.448 1 1 1h5.559a3 3 0 0 0 2.846-2.051l1.088-3.265A1 1 0 0 1 13.442 7h5.144l-1.293 1.293c-.39.391-.39 1.024 0 1.414s1.024.391 1.414 0l3-3c.391-.39.391-1.024 0-1.414zm0 19.414c-.39.391-1.024.391-1.414 0s-.39-1.024 0-1.414L18.586 19h-5.35a3 3 0 0 1-2.683-1.658l-.947-1.894c-.247-.494-.047-1.095.447-1.342s1.095-.047 1.342.447l.947 1.894a1 1 0 0 0 .895.553h5.35l-1.293-1.293c-.39-.39-.39-1.024 0-1.414s1.024-.39 1.414 0l3 3c.391.391.391 1.024 0 1.414z"/></svg>
